!!!SOCIAL_FUNCTION:	potlatch songs
!!!PDT:	1939
!!!OTL: No_11_Song_in_the_Canoes.krn
!!!LANG: Non-Tone
!!!LING_GROUP: Wakashan
!!!REG: Pacific Northwest
**kern
*staff1
=1-
*clefF4
*k[b-]
*M2/4
[4A\
8A\L]
16G\L
16A\JJ
=2
4G\
16F\
16r
16A\LL
16G\JJ
=3
4G\
8F\L
16A\L
16G\JJ
=4
16G\LL
16F\
16A\
16G\JJ
8G\L
8F\J
=5||
*M3/4
4F\
4r
12G\L
12G\
12A\J
=6
4.A\
8G\
16.A\LL
32G\K
16G\
32F\JJk
32r
=7
16G\LL
16G\
16G\
16F\JJ
4F\
8r
16r
16A\
=8||
*M2/4
[4A\
16A\LL]
16G\
16B-\
16A\JJ
=9
4G\
16F\
16r
16A\LL
16G\JJ
=10
4G\
16F\
16r
16A\LL
16G\JJ
=11
16G\LL
16F\
16B-\
16A\JJ
8G\L
8F\J
=12
4F\
4r
=13
2r
=14
4r
8r
8G\
=15
4.G\
16A\LL
16G\JJ
=16
4G\
8r
16A\LL
16G\JJ
=17
4G\
16F\
16r
16A\LL
16G\JJ
=18
16G\LL
16F\
16B-\
16A\JJ
8G\L
8F\J
=19||
*M3/4
4F\
4r
16G\LL
16G\J
8A\J
=20
4.A\
8G\
16.A\LL
32G\K
16G\
16F\JJ
=21
16G\LL
16G\
16G\
16F\JJ
8F\
8r
8r
8c\
=22||
*M2/4
8A\L
8G\J
16F\
16r
8A\
=23
8G\L
8G\J
8A\L
8G\J
=24
16G\LL
16G\J
8G\J
16F\
16r
8G\
=25
8G\L
8G\J
16F\
16r
8G\
=26
8G\L
8G\J
8A\L
8G\J
=27
16G\LL
16G\J
8G\J
4F\
==
*-
